X: 14056
T: The MENGS' REEL
C: Bob McQuillen May'10
B: Bob's Note Book 14 #56
%R: reel
%D:2010
Z: 2020 John Chambers <jc:trillian.mit.edu>
M: C
L: 1/8
K: G
Bc \
| d2dB cedc | BdBG ADEF | G2GE DGBd | gedB A2Bc |
| dedB AcBA | GABG ABGE | DEGA Bdeg | dBAB G2 :|
|: Bc \
| dgfg egfe | dgfg edBc | d2dg egdc | BdBG A2GF |
| EGFG DGBG | ABcd BGBA | GBdg egdc | BGAF G2 :|
%%begintext align
%% Meng Chi Tsen and his
%% lovely wife, from Stoddard, have been regulars
%% at the Peterborough 1st Saturday Dance for so many
%% years that I felt they should have had a tune of
%% their own long ago. So finally, dear friends, here
%% it is, with best wishes always, from Bob--
%%endtext

%%sep 1 1 500

%%sep 1 1 500

